X:1
T:Fisel, tons berr
C:Trad.
S:Stage festival fisel d'aot 98
A:Bretagne
Z:Roger Ngaret (Dcembre 98)
M:4/4
L:1/8
Q:90
K:C
T:A
K:Eb
cg gf ga gf | de gf e2 d2 :: de fd (3edc Bc | df ed c2 c2 :|
T:B
K:F
fa c'c' bg a2 | fe fg b2 a2 :: fa c'c' bg a2 | fd ef g2 f2 :|
T:C
K:Bb
fc fc fa c'2 | bg ab g2 g2 :: fc fc fa c'2 | bg ag f2 f2 :|
